X:144360
H:
T:John Peel
C:
B:
O:Kevin Fraser
Z:Kevin Fraser
Q:1/4=90
K:HP
M:4/4
L:1/8
R:March
U: R = ///
U: r = //
U: V = !accent!
V:M gstem=up stem=down name="Melody"
V:H gstem=up stem=down name="Harmony"
V:C gstem=up stem=down name="C-Harmony"
V:S gstem=up stem=down dyn=up stafflines=1 clef=perc middle=G name="Snare" sname="Snare"" sname="Snare"
V:B gstem=up stem=down clef=none dyn=up name="Bass"
V:T gstem=up stem=down clef=none dyn=up name="Tenor"
I:MIDI=program 110
I:linebreak $
% %score {M H}
%%MIDI program 109 #bagpipes
%%MIDI vol 100
%%landscape
[V:M][| {g}cd | {gef}e2{A}e2 {gcd}c2 {g}cd | {gef}e2{A}e2 {gcd}c2 {g}Bc | {Gdc}d2 {gdG}d2 {gBd}B2 {g}Bc | {Gdc}d2 {gdG}d2 {gBd}B2 {gcd}cB | $
[V:M]      X2 |      {g}A2 {GAG}A2 {ag}a2 {g}ag | {afg}f2 {e}f2 {gef}e2 {g}dc | {gfg}f2 {g}dB {gAGAG}A2 {g}GA | {gBd}B2 {G}A2 |]


